UI/POI/SVG/waterfall_solid_16px.svg

<svg width="16" height="16" viewBox="0 0 16 16" fill="none" xmlns="http://www.w3.org/2000/svg">
<path d="M15 8.41V9.88C14.73 9.88 14.62 9.97 14.34 10.24C14.1279 10.4762 13.8691 10.6657 13.5799 10.7966C13.2907 10.9274 12.9774 10.9967 12.66 11C12.3456 10.9964 12.0354 10.9268 11.7495 10.7959C11.4635 10.665 11.2082 10.4756 11 10.24C10.72 9.97 10.61 9.88 10.34 9.88C10.07 9.88 9.96 9.97 9.68 10.23C9.47161 10.4696 9.21426 10.6617 8.9253 10.7933C8.63635 10.9249 8.32252 10.993 8.005 10.993C7.68748 10.993 7.37365 10.9249 7.0847 10.7933C6.79574 10.6617 6.53839 10.4696 6.33 10.23C6 10 5.93 9.88 5.66 9.88C5.39 9.88 5.28 9.97 5.01 10.23C4.80004 10.4695 4.54183 10.6619 4.2523 10.7946C3.96278 10.9273 3.64847 10.9973 3.33 11C3.01153 10.9973 2.69722 10.9273 2.4077 10.7946C2.11817 10.6619 1.85996 10.4695 1.65 10.23C1.38 10 1.27 9.88 1 9.88V8.41C1.31741 8.41333 1.63066 8.4826 1.91987 8.61344C2.20908 8.74427 2.46794 8.9338 2.68 9.17C2.95 9.44 3.06 9.53 3.33 9.53C3.6 9.53 3.71 9.44 3.99 9.17C4.27013 8.87841 4.61175 8.65294 4.99 8.51V3C4.99001 2.73651 4.88603 2.48366 4.70065 2.29641C4.51527 2.10915 4.26348 2.00263 4 2H3V1H8C9.06087 1 10.0783 1.42143 10.8284 2.17157C11.5786 2.92172 12 3.93913 12 5V9.17C12.28 9.43 12.39 9.53 12.66 9.53C12.93 9.53 13.05 9.44 13.32 9.17C13.5321 8.9338 13.7909 8.74427 14.0801 8.61344C14.3693 8.4826 14.6826 8.41333 15 8.41ZM15 13.47V12C14.73 12 14.62 12.09 14.34 12.36C14.1279 12.5962 13.8691 12.7857 13.5799 12.9166C13.2907 13.0474 12.9774 13.1167 12.66 13.12C12.3456 13.1164 12.0354 13.0468 11.7495 12.9159C11.4635 12.785 11.2082 12.5956 11 12.36C10.72 12.09 10.61 12 10.34 12C10.07 12 9.96 12.09 9.68 12.35C9.47004 12.5895 9.21183 12.7819 8.9223 12.9146C8.63278 13.0473 8.31847 13.1173 8 13.12C7.68279 13.1184 7.36959 13.0489 7.08152 12.9161C6.79345 12.7832 6.53719 12.5902 6.33 12.35C6 12.09 5.93 12 5.66 12C5.39 12 5.28 12.09 5.01 12.35C4.80004 12.5895 4.54183 12.7819 4.2523 12.9146C3.96278 13.0473 3.64847 13.1173 3.33 13.12C3.01153 13.1173 2.69722 13.0473 2.4077 12.9146C2.11817 12.7819 1.85996 12.5895 1.65 12.35C1.38 12.09 1.27 12 1 12V13.75C1.64926 14.303 2.47722 14.6015 3.33 14.59C4.18278 14.6015 5.01074 14.303 5.66 13.75C6.31279 14.3037 7.1441 14.6021 8 14.59C8.85486 14.5959 9.68406 14.2982 10.34 13.75C10.992 14.2983 11.8181 14.5961 12.67 14.59C13.5239 14.5978 14.3517 14.2958 15 13.74V13.47Z" fill="#0F1621"/>
</svg>

<svg xmlns="http://www.w3.org/2000/svg" width="16" height="16" viewBox="0 0 16 16"><rect width="16" height="16" style="fill:none"/><path d="M15,8.41V9.88c-.27,0-.38.09-.66.36a2.29,2.29,0,0,1-1.68.76A2.25,2.25,0,0,1,11,10.24c-.28-.27-.39-.36-.66-.36s-.38.09-.66.35a2.22,2.22,0,0,1-3.35,0C6,10,5.93,9.88,5.66,9.88s-.38.09-.65.35A2.26,2.26,0,0,1,3.33,11a2.26,2.26,0,0,1-1.68-.77C1.38,10,1.27,9.88,1,9.88V8.41a2.29,2.29,0,0,1,1.68.76c.27.27.38.36.65.36s.38-.09.66-.36a2.72,2.72,0,0,1,1-.66V3A1,1,0,0,0,4,2H3V1H8a4,4,0,0,1,4,4V9.17h0c.28.26.39.36.66.36s.39-.09.66-.36A2.29,2.29,0,0,1,15,8.41Zm0,5.06V12c-.27,0-.38.09-.66.36a2.29,2.29,0,0,1-1.68.76A2.25,2.25,0,0,1,11,12.36c-.28-.27-.39-.36-.66-.36s-.38.09-.66.35A2.26,2.26,0,0,1,8,13.12a2.22,2.22,0,0,1-1.67-.77C6,12.09,5.93,12,5.66,12s-.38.09-.65.35a2.26,2.26,0,0,1-1.68.77,2.26,2.26,0,0,1-1.68-.77C1.38,12.09,1.27,12,1,12v1.75a3.52,3.52,0,0,0,2.33.84,3.52,3.52,0,0,0,2.33-.84A3.54,3.54,0,0,0,8,14.59a3.61,3.61,0,0,0,2.34-.84,3.58,3.58,0,0,0,2.33.84A3.53,3.53,0,0,0,15,13.74Z"/></svg>
